gama.ui.shared/icons_svg/dark/navigator/folder.test.svg

<svg height="24.75" viewBox="-649.341 -3558.148 24.75 24.75" width="24.75" xmlns="http://www.w3.org/2000/svg"><g fill="none"><path d="m-647.76644-3551.8276 10.08004-.48 2.4 3.3601 9.12.72v13.44h-21.60004z" fill="#656565"/><path d="m-645.9664-3551.773c-.99415 0-1.8.806-1.8 1.8v13.2c0 .994.80585 1.8 1.8 1.8h18c.9941 0 1.8-.806 1.8-1.8v-9.6c0-.994-.8059-1.8-1.8-1.8h-6.6c-1.3255 0-2.4-1.0746-2.4-2.4 0-.663-.5373-1.2-1.2-1.2zm0-1.2h7.8c1.32546 0 2.4 1.0744 2.4 2.4 0 .6626.5372 1.2 1.2 1.2h6.6c1.65684 0 3 1.343 3 3v9.6c0 1.6568-1.34316 3-3 3h-18c-1.6569 0-3-1.3432-3-3v-13.2c0-1.657 1.3431-3 3-3z" fill="#e3e5e1"/><path d="m-638.78595-3538.6993-2.36735-2.731-.80615.9233 3.1735 3.661 6.81255-7.859-.8005-.9234z" fill="#e3e5e1"/><path d="m-638.78595-3538.6993-2.36735-2.731-.80615.9233 3.1735 3.661 6.81255-7.859-.8005-.9234z"/></g></svg>

<?xml version="1.0" encoding="UTF-8" standalone="no"?>
<!DOCTYPE svg PUBLIC "-//W3C//DTD SVG 1.1//EN" "http://www.w3.org/Graphics/SVG/1.1/DTD/svg11.dtd">
<svg xmlns:xl="http://www.w3.org/1999/xlink" version="1.1" xmlns="http://www.w3.org/2000/svg" xmlns:dc="http://purl.org/dc/elements/1.1/" viewBox="-649.34145 -3558.148 24.750035 24.750025" width="24.750035" height="24.750025">
  <defs/>
  <g id="SOURCES" fill-opacity="1" stroke-dasharray="none" fill="none" stroke="none" stroke-opacity="1">
    <title>SOURCES</title>
    <g id="SOURCES_Dark">
      <title>Dark</title>
      <g id="Graphic_12653"/>
      <g id="Graphic_12652">
        <path d="M -647.76644 -3551.8276 L -637.6864 -3552.3076 L -635.2864 -3548.9475 L -626.1664 -3548.2275 L -626.1664 -3534.7875 L -647.76644 -3534.7875 Z" fill="#656565"/>
      </g>
      <g id="Graphic_12651">
        <path d="M -645.9664 -3551.773 C -646.96055 -3551.773 -647.7664 -3550.967 -647.7664 -3549.973 L -647.7664 -3536.773 C -647.7664 -3535.779 -646.96055 -3534.973 -645.9664 -3534.973 L -627.9664 -3534.973 C -626.9723 -3534.973 -626.1664 -3535.779 -626.1664 -3536.773 L -626.1664 -3546.373 C -626.1664 -3547.367 -626.9723 -3548.173 -627.9664 -3548.173 L -634.5664 -3548.173 C -635.8919 -3548.173 -636.9664 -3549.2476 -636.9664 -3550.573 C -636.9664 -3551.236 -637.5037 -3551.773 -638.1664 -3551.773 Z M -645.9664 -3552.973 L -638.1664 -3552.973 C -636.84094 -3552.973 -635.7664 -3551.8986 -635.7664 -3550.573 C -635.7664 -3549.9104 -635.2292 -3549.373 -634.5664 -3549.373 L -627.9664 -3549.373 C -626.30956 -3549.373 -624.9664 -3548.03 -624.9664 -3546.373 L -624.9664 -3536.773 C -624.9664 -3535.1162 -626.30956 -3533.773 -627.9664 -3533.773 L -645.9664 -3533.773 C -647.6233 -3533.773 -648.9664 -3535.1162 -648.9664 -3536.773 L -648.9664 -3549.973 C -648.9664 -3551.63 -647.6233 -3552.973 -645.9664 -3552.973 Z" fill="#e3e5e1"/>
      </g>
      <g id="Graphic_12650">
        <path d="M -638.78595 -3538.6993 L -641.1533 -3541.4303 L -641.95945 -3540.507 L -638.78595 -3536.846 L -631.9734 -3544.705 L -632.7739 -3545.6284 Z" fill="#e3e5e1"/>
        <path d="M -638.78595 -3538.6993 L -641.1533 -3541.4303 L -641.95945 -3540.507 L -638.78595 -3536.846 L -631.9734 -3544.705 L -632.7739 -3545.6284 Z" stroke="white" stroke-linecap="round" stroke-linejoin="round" stroke-width="0"/>
      </g>
    </g>
  </g>
</svg>
